img/illustrations/Registration.svg

<svg width="145" height="145" viewBox="0 0 145 145" fill="none" xmlns="http://www.w3.org/2000/svg">
<path d="M105.89 44.1001C105.89 44.1001 102.7 57.6801 104.7 64.6801C106.7 71.6801 106.7 77.6801 107.7 79.6801L109.92 51.0601L109.7 46.6801L107.88 44.9601L105.89 44.1001Z" fill="#EBEBEB"/>
<path d="M6 120H127.17" stroke="#007B64" stroke-width="2" stroke-linecap="round" stroke-linejoin="round"/>
<path d="M134.49 120H140" stroke="#007B64" stroke-width="2" stroke-linecap="round" stroke-linejoin="round"/>
<path d="M23.18 44.3001C23.18 44.3001 27.59 46.5901 26.59 53.5901C25.59 60.5901 26.59 64.5901 25.59 69.5901C24.79 73.5901 23.59 77.5901 23.59 77.5901L20.77 50.2301V47.5901L22.14 44.8201L23.18 44.3001Z" fill="#EBEBEB"/>
<path d="M92.7801 29.1801H38.8801C34.9865 29.1801 31.8301 32.3364 31.8301 36.2301V111.13C31.8301 115.024 34.9865 118.18 38.8801 118.18H92.7801C96.6737 118.18 99.8301 115.024 99.8301 111.13V36.2301C99.8301 32.3364 96.6737 29.1801 92.7801 29.1801Z" fill="white"/>
<path d="M37.0698 117.91C37.0698 117.91 51.6998 107.68 64.6998 107.68C77.6998 107.68 79.6998 99.6801 99.7998 99.3301L99.6998 111.68L97.0498 116.75L95.5098 117.91H37.0698Z" fill="#EBEBEB"/>
<path d="M105.44 44.1001C106.096 44.1494 106.735 44.3275 107.322 44.6242C107.908 44.9209 108.431 45.3303 108.859 45.8291C109.287 46.3279 109.613 46.9062 109.817 47.531C110.021 48.1557 110.101 48.8147 110.05 49.4701L105.19 113.23C105.153 113.705 105.052 114.172 104.89 114.62" stroke="#007B64" stroke-width="2.04" stroke-linecap="round" stroke-linejoin="round"/>
<path d="M99.7998 41.4701V111.19C99.7998 113.047 99.0623 114.827 97.7495 116.14C96.4368 117.453 94.6563 118.19 92.7998 118.19H39.0098C37.1533 118.19 35.3728 117.453 34.06 116.14C32.7473 114.827 32.0098 113.047 32.0098 111.19V36.0001C32.0098 34.1435 32.7473 32.3631 34.06 31.0503C35.3728 29.7376 37.1533 29.0001 39.0098 29.0001H92.7998C94.6563 29.0001 96.4368 29.7376 97.7495 31.0503C99.0623 32.3631 99.7998 34.1435 99.7998 36.0001V43.7801" stroke="#007B64" stroke-width="2" stroke-linecap="round" stroke-linejoin="round"/>
<path d="M27.7002 115.48C27.5491 115.201 27.422 114.91 27.3202 114.61C27.1562 114.158 27.0487 113.688 27.0002 113.21L20.7002 49.3401C20.5679 47.9711 20.91 46.5982 21.6691 45.4513C22.4282 44.3044 23.5583 43.4532 24.8702 43.0401" stroke="#007B64" stroke-width="1.71" stroke-linecap="round" stroke-linejoin="round"/>
<path d="M46.5899 43.5101V53.3101H43.2899V46.0001H41.6099V43.5101H46.5899Z" fill="#FFC463"/>
<path d="M56.5098 48.4101H86.5098" stroke="#007B64" stroke-width="2" stroke-linecap="round" stroke-linejoin="round"/>
<path d="M49.3201 70.3301V72.9001H41.4601V70.9001L45.0101 67.6201C45.2535 67.4094 45.4597 67.1592 45.6201 66.8801C45.7231 66.6931 45.7781 66.4835 45.7801 66.2701C45.7869 66.1635 45.7677 66.0568 45.7241 65.9593C45.6806 65.8617 45.614 65.7762 45.5301 65.7101C45.3302 65.5578 45.0803 65.4864 44.8301 65.5101C44.5266 65.5064 44.2284 65.5903 43.9712 65.7517C43.7141 65.9131 43.5089 66.1451 43.3801 66.4201L40.8901 65.1701C41.264 64.4692 41.8339 63.8924 42.5301 63.5101C43.3286 63.083 44.2251 62.8727 45.1301 62.9001C45.8353 62.8882 46.5357 63.0173 47.1901 63.2801C47.7492 63.501 48.2346 63.8753 48.5901 64.3601C48.9318 64.8264 49.111 65.392 49.1001 65.9701C49.1018 66.4969 48.982 67.017 48.7501 67.4901C48.4065 68.1018 47.9521 68.6444 47.4101 69.0901L46.0201 70.3601L49.3201 70.3301Z" fill="#FFC463"/>
<path d="M56.5098 67.8801H86.5098" stroke="#007B64" stroke-width="2" stroke-linecap="round" stroke-linejoin="round"/>
<path d="M49.3302 87.3501C49.7338 87.8502 49.9464 88.4776 49.9302 89.1201C49.9326 89.7017 49.7658 90.2715 49.4502 90.7601C49.0961 91.3118 48.5838 91.7439 47.9802 92.0001C47.2037 92.3443 46.3592 92.5084 45.5102 92.4801C44.8379 92.4734 44.1679 92.3997 43.5102 92.2601C42.8908 92.1291 42.2942 91.9067 41.7402 91.6001L42.8402 89.1601C43.242 89.3918 43.6723 89.5699 44.1202 89.6901C44.5504 89.8091 44.994 89.873 45.4402 89.8801C45.7557 89.893 46.0692 89.8241 46.3502 89.6801C46.4554 89.6292 46.5441 89.5496 46.606 89.4505C46.6679 89.3515 46.7006 89.2369 46.7002 89.1201C46.7002 88.6701 46.3202 88.4501 45.5502 88.4501H44.2302V86.4501L45.7002 84.9501H42.2002V82.4601H49.4102V84.4601L47.6102 86.3001C48.2836 86.4509 48.8883 86.82 49.3302 87.3501V87.3501Z" fill="#FFC463"/>
<path d="M56.9199 87.4701H86.5099" stroke="#007B64" stroke-width="1.99" stroke-linecap="round" stroke-linejoin="round"/>
</svg>

<svg width="145" height="145" fill="none" xmlns="http://www.w3.org/2000/svg"><path d="M105.89 44.1s-3.19 13.58-1.19 20.58c2 7 2 13 3 15l2.22-28.62-.22-4.38-1.82-1.72-1.99-.86z" fill="#EBEBEB"/><path d="M6 120h121.17m7.32 0H140" stroke="#007B64" stroke-width="2" stroke-linecap="round" stroke-linejoin="round"/><path d="M23.18 44.3s4.41 2.29 3.41 9.29c-1 7 0 11-1 16-.8 4-2 8-2 8l-2.82-27.36v-2.64l1.37-2.77 1.04-.52z" fill="#EBEBEB"/><path d="M92.78 29.18h-53.9a7.05 7.05 0 00-7.05 7.05v74.9a7.05 7.05 0 007.05 7.05h53.9a7.05 7.05 0 007.05-7.05v-74.9a7.05 7.05 0 00-7.05-7.05z" fill="#fff"/><path d="M37.07 117.91s14.63-10.23 27.63-10.23c13 0 15-8 35.1-8.35l-.1 12.35-2.65 5.07-1.54 1.16H37.07z" fill="#EBEBEB"/><path d="M105.44 44.1a5.001 5.001 0 014.61 5.37l-4.86 63.76a5.295 5.295 0 01-.3 1.39" stroke="#007B64" stroke-width="2.04" stroke-linecap="round" stroke-linejoin="round"/><path d="M99.8 41.47v69.72a7 7 0 01-7 7H39.01a6.999 6.999 0 01-7-7V36a7 7 0 017-7H92.8a7 7 0 017 7v7.78" stroke="#007B64" stroke-width="2" stroke-linecap="round" stroke-linejoin="round"/><path d="M27.7 115.48a5.617 5.617 0 01-.38-.87 5.829 5.829 0 01-.32-1.4l-6.3-63.87a6 6 0 014.17-6.3" stroke="#007B64" stroke-width="1.71" stroke-linecap="round" stroke-linejoin="round"/><path d="M46.59 43.51v9.8h-3.3V46h-1.68v-2.49h4.98z" fill="#FFC463"/><path d="M56.51 48.41h30" stroke="#007B64" stroke-width="2" stroke-linecap="round" stroke-linejoin="round"/><path d="M49.32 70.33v2.57h-7.86v-2l3.55-3.28c.244-.21.45-.46.61-.74a1.29 1.29 0 00.16-.61.659.659 0 00-.25-.56 1 1 0 00-.7-.2 1.58 1.58 0 00-1.45.91l-2.49-1.25a4.09 4.09 0 011.64-1.66 5.18 5.18 0 012.6-.61 5.288 5.288 0 012.06.38 3.19 3.19 0 011.4 1.08 2.64 2.64 0 01.51 1.61 3.428 3.428 0 01-.35 1.52 5.661 5.661 0 01-1.34 1.6l-1.39 1.27 3.3-.03z" fill="#FFC463"/><path d="M56.51 67.88h30" stroke="#007B64" stroke-width="2" stroke-linecap="round" stroke-linejoin="round"/><path d="M49.33 87.35c.404.5.616 1.128.6 1.77a3 3 0 01-.48 1.64A3.26 3.26 0 0147.98 92a5.632 5.632 0 01-2.47.48 10.118 10.118 0 01-2-.22 6.383 6.383 0 01-1.77-.66l1.1-2.44c.402.232.832.41 1.28.53.43.12.874.183 1.32.19.316.013.63-.056.91-.2a.62.62 0 00.35-.56c0-.45-.38-.67-1.15-.67h-1.32v-2l1.47-1.5h-3.5v-2.49h7.21v2l-1.8 1.84a3.13 3.13 0 011.72 1.05z" fill="#FFC463"/><path d="M56.92 87.47h29.59" stroke="#007B64" stroke-width="1.99" stroke-linecap="round" stroke-linejoin="round"/></svg>
